X:1
T:Karussell-Walzer
T:Karussell-Walzer
T:L. Streabbog (1835-1886)
%%score { 1 | 2 }
L:1/8
M:3/4
K:C
V:1 treble nm="Piano" snm="Pno."
V:2 bass 
V:1
"^Allegretto" (E4 F2 | G4 C2 | B,6- | B,6) | (F4 G2 | A4 D2 | C6- | C6) | (c4 B2 | d4 c2 | c6 | %11
w: Klei- nes|Ka- rus-|sell,||dreh dich|nur recht|schnell,||im- mer|rund im|Krei-|
 B4) (D2 | A4 G2 | D4 ^D2 | E6- |!>(! E6)!>)! | (E4 F2 | G4 C2 | B,6- | B,6) | (F4 G2 | A4 D2 | %22
w: se, ja,|das bringt|uns in|Schwung!||Lok- kend|klingt der|Ton||aus dem|Gram- mo-|
 C6- | C6) | (c4 B2 | d4 c2 | c6 | B4) (D2 | A4 G2 | D4 E2 | C6- | C6) |] %32
w: phon.||Lauft hopp-|hopp, ihr|Pferd-|chen, nur|im- mer|rund her-|um!||
V:2
!mp! C,2 [E,G,]2 z2 | E,2 G,2 z2 | D,2 [F,G,]2 [F,G,]2 | F,2 E,2 F,2 | D,2 [F,G,]2 z2 | %5
 F,2 G,2 z2 | E,2 G,2 ^F,2 | G,2 E,2 D,2 |!f! C,2 [E,G,]2 z2 | E,2 G,2 z2 | D,2 [F,G,]2 [F,G,]2 | %11
 D,2 [F,G,]2 z2 | F,2 G,2 z2 | B,,2 G,2 z2 | C,2 E,2 G,2 | F,2 E,2 D,2 |!mp! C,2 [E,G,]2 z2 | %17
 E,2 G,2 z2 | D,2 [F,G,]2 [F,G,]2 | F,2 E,2 F,2 | D,2 [F,G,]2 z2 | F,2 G,2 z2 | E,2 G,2 ^F,2 | %23
 G,2 E,2 D,2 |!f! C,2 [E,G,]2 z2 | E,2 G,2 z2 | D,2 [F,G,]2 [F,G,]2 | D,2 [F,G,]2 z2 | F,2 G,2 z2 | %29
 B,,2 G,2 z2 | E,2 G,2 E,2 | C,6 |] %32

